X:21
T:Hull Dock Company’s March,The. TJD.21
M:2/2
L:1/8
Q:1/4=120
S:T.J.Dixon MS1, Lincolnshire, 1798
R:march
N:Note values changed in final bar of A part
A:Lincolnshire, Holton le Moor
Z:vmp.R.Greig2010
K:C
(G/A/B)|c2ccc2(de/g/)|e2(e>e)e2fg/a/|g2(ec)f2(df)|ecBc d2(g>f)|
d2(d>d)d2(e>c)|B2(B>B)B2(cd/e/)|(3dg^f (3edc B2A2″^bar line added”|G2G>GG2:|
|:(G/A/B/c/)|d2(ef/g/) A>cB>d|cBcdc2 (de/f/) ecfd geac|!
“^as writ”B2G2(GG)G2de/f/|e2c>cc2 a/(g/f/e/)|d2ddd2 (ef)|egec AgdB|c2(c>c)c2|]

